images/icons/plastering.svg

<svg height="32pt" viewBox="0 0 32 32" width="32pt" xmlns="http://www.w3.org/2000/svg"><g fill="#fff"><path d="m21.257812 9.15625c-.539062-.699219-1.542968-.828125-2.242187-.289062l-5.65625 4.351562c-.960937-1.601562-1.519531-3.410156-1.628906-5.273438-.507813-5.074218-.980469-7.945312-4.796875-7.945312h-6.398438c-.296875 0-.535156.238281-.535156.535156v30.929688c0 .296875.238281.535156.535156.535156h21.332032c.261718 0 .480468-.1875.523437-.445312.15625-1.027344.242187-2.0625.257813-3.101563l.566406.734375c.257812.335938.640625.558594 1.0625.609375.070312.011719.136718.015625.207031.015625.355469 0 .695313-.117188.976563-.332031l5.914062-4.554688c.699219-.539062.832031-1.542969.292969-2.246093zm.144532 21.777344h-1.535156c.234374-1.050782.367187-2.125.398437-3.199219 0-.296875-.238281-.535156-.53125-.535156-.296875 0-.535156.238281-.535156.535156-.039063 1.078125-.179688 2.148437-.425781 3.199219h-17.707032v-29.867188h5.867188c2.660156 0 3.1875 1.488282 3.734375 6.988282.253906 2.515624.863281 4.375 1.953125 5.980468-.242188.535156-.171875 1.160156.183594 1.628906l8.769531 11.390626c.042969 1.296874-.015625 2.59375-.171875 3.878906zm9.324218-6.851563-5.917968 4.550781c-.234375.179688-.566406.136719-.746094-.09375l-10.410156-13.527343c-.179688-.234375-.136719-.566407.09375-.746094l5.917968-4.554687c.234376-.179688.570313-.136719.75.097656l10.410157 13.523437c.175781.234375.132812.570313-.097657.75zm0 0"/><path d="m23.046875 15.855469c-.359375-.46875-1.027344-.554688-1.492187-.195313l-.652344-.84375c-.34375-.449218-.855469-.742187-1.414063-.816406-.5625-.070312-1.128906.082031-1.578125.425781l-.421875.328125c-.15625.113282-.234375.300782-.210937.492188.023437.191406.148437.355468.328125.429687.179687.070313.382812.042969.53125-.078125l.425781-.328125c.222656-.171875.507812-.246093.785156-.210937.28125.035156.535156.183594.707032.40625l.652343.847656c-.222656.171875-.371093.425781-.40625.707031-.035156.28125.039063.5625.210938.789063l4.230469 5.492187c.539062.699219 1.542968.832031 2.242187.292969s.832031-1.542969.292969-2.246094zm3.289063 6.894531c-.234376.179688-.570313.132812-.75-.097656l-4.226563-5.496094.84375-.648438 4.230469 5.492188c.179687.234375.136718.570312-.097656.75zm0 0"/><path d="m9.363281 7.714844c-.023437-1.011719-.125-2.023438-.308593-3.019532-.621094-3.117187-5.195313-2.582031-5.386719-2.558593-.191407.023437-.355469.144531-.433594.320312-.074219.179688-.046875.382813.070313.535157.113281.152343.304687.230468.496093.203124.039063-.003906 3.777344-.445312 4.210938 1.710938.167969.941406.265625 1.898438.285156 2.855469.066406 1.449219.128906 2.816406.824219 4.210937.085937.167969.257812.28125.445312.292969.191406.011719.375-.078125.480469-.238281.101563-.160156.117187-.363282.03125-.53125-.597656-1.191406-.652344-2.390625-.714844-3.78125zm0 0"/></g></svg>

<?xml version="1.0" encoding="UTF-8"?>
<svg xmlns="http://www.w3.org/2000/svg" xmlns:xlink="http://www.w3.org/1999/xlink" width="32pt" height="32pt" viewBox="0 0 32 32" version="1.1">
<g id="surface1">
<path style=" stroke:none;fill-rule:nonzero;fill:rgb(255%,255%,255%);fill-opacity:1;" d="M 21.257812 9.15625 C 20.71875 8.457031 19.714844 8.328125 19.015625 8.867188 L 13.359375 13.21875 C 12.398438 11.617188 11.839844 9.808594 11.730469 7.945312 C 11.222656 2.871094 10.75 0 6.933594 0 L 0.535156 0 C 0.238281 0 0 0.238281 0 0.535156 L 0 31.464844 C 0 31.761719 0.238281 32 0.535156 32 L 21.867188 32 C 22.128906 32 22.347656 31.8125 22.390625 31.554688 C 22.546875 30.527344 22.632812 29.492188 22.648438 28.453125 L 23.214844 29.1875 C 23.472656 29.523438 23.855469 29.746094 24.277344 29.796875 C 24.347656 29.808594 24.414062 29.8125 24.484375 29.8125 C 24.839844 29.8125 25.179688 29.695312 25.460938 29.480469 L 31.375 24.925781 C 32.074219 24.386719 32.207031 23.382812 31.667969 22.679688 Z M 21.402344 30.933594 L 19.867188 30.933594 C 20.101562 29.882812 20.234375 28.808594 20.265625 27.734375 C 20.265625 27.4375 20.027344 27.199219 19.734375 27.199219 C 19.4375 27.199219 19.199219 27.4375 19.199219 27.734375 C 19.160156 28.8125 19.019531 29.882812 18.773438 30.933594 L 1.066406 30.933594 L 1.066406 1.066406 L 6.933594 1.066406 C 9.59375 1.066406 10.121094 2.554688 10.667969 8.054688 C 10.921875 10.570312 11.53125 12.429688 12.621094 14.035156 C 12.378906 14.570312 12.449219 15.195312 12.804688 15.664062 L 21.574219 27.054688 C 21.617188 28.351562 21.558594 29.648438 21.402344 30.933594 Z M 30.726562 24.082031 L 24.808594 28.632812 C 24.574219 28.8125 24.242188 28.769531 24.0625 28.539062 L 13.652344 15.011719 C 13.472656 14.777344 13.515625 14.445312 13.746094 14.265625 L 19.664062 9.710938 C 19.898438 9.53125 20.234375 9.574219 20.414062 9.808594 L 30.824219 23.332031 C 31 23.566406 30.957031 23.902344 30.726562 24.082031 Z M 30.726562 24.082031 "/>
<path style=" stroke:none;fill-rule:nonzero;fill:rgb(255%,255%,255%);fill-opacity:1;" d="M 23.046875 15.855469 C 22.6875 15.386719 22.019531 15.300781 21.554688 15.660156 L 20.902344 14.816406 C 20.558594 14.367188 20.046875 14.074219 19.488281 14 C 18.925781 13.929688 18.359375 14.082031 17.910156 14.425781 L 17.488281 14.753906 C 17.332031 14.867188 17.253906 15.054688 17.277344 15.246094 C 17.300781 15.4375 17.425781 15.601562 17.605469 15.675781 C 17.785156 15.746094 17.988281 15.71875 18.136719 15.597656 L 18.5625 15.269531 C 18.785156 15.097656 19.070312 15.023438 19.347656 15.058594 C 19.628906 15.09375 19.882812 15.242188 20.054688 15.464844 L 20.707031 16.3125 C 20.484375 16.484375 20.335938 16.738281 20.300781 17.019531 C 20.265625 17.300781 20.339844 17.582031 20.511719 17.808594 L 24.742188 23.300781 C 25.28125 24 26.285156 24.132812 26.984375 23.59375 C 27.683594 23.054688 27.816406 22.050781 27.277344 21.347656 Z M 26.335938 22.75 C 26.101562 22.929688 25.765625 22.882812 25.585938 22.652344 L 21.359375 17.15625 L 22.203125 16.507812 L 26.433594 22 C 26.613281 22.234375 26.570312 22.570312 26.335938 22.75 Z M 26.335938 22.75 "/>
<path style=" stroke:none;fill-rule:nonzero;fill:rgb(255%,255%,255%);fill-opacity:1;" d="M 9.363281 7.714844 C 9.339844 6.703125 9.238281 5.691406 9.054688 4.695312 C 8.433594 1.578125 3.859375 2.113281 3.667969 2.136719 C 3.476562 2.160156 3.3125 2.28125 3.234375 2.457031 C 3.160156 2.636719 3.1875 2.839844 3.304688 2.992188 C 3.417969 3.144531 3.609375 3.222656 3.800781 3.195312 C 3.839844 3.191406 7.578125 2.75 8.011719 4.90625 C 8.179688 5.847656 8.277344 6.804688 8.296875 7.761719 C 8.363281 9.210938 8.425781 10.578125 9.121094 11.972656 C 9.207031 12.140625 9.378906 12.253906 9.566406 12.265625 C 9.757812 12.277344 9.941406 12.1875 10.046875 12.027344 C 10.148438 11.867188 10.164062 11.664062 10.078125 11.496094 C 9.480469 10.304688 9.425781 9.105469 9.363281 7.714844 Z M 9.363281 7.714844 "/>
</g>
</svg>
